assets/img/braze_icons/hexagon-01.svg

<svg fill="none" height="24" viewBox="0 0 24 24" width="24" xmlns="http://www.w3.org/2000/svg"><path clip-rule="evenodd" d="m11.5971 1.18505c.2658-.05467.54-.05467.8058 0 .3073.06319.5819.21702.8003.33931.0203.01139.0401.02251.0595.03325l7.4 4.11111c.0204.01137.0415.02298.0631.03487.2311.12731.5218.28738.7449.52956.193.20938.339.45754.4283.7279.1033.3127.1021.64448.1012.90835-.0001.02466-.0002.04873-.0002.07213v8.11707c0 .0234.0001.0475.0002.0722.0009.2638.0021.5956-.1012.9083-.0893.2704-.2353.5185-.4283.7279-.2231.2422-.5138.4023-.7449.5296-.0216.0119-.0427.0235-.0631.0348l-7.4 4.1112c-.0194.0107-.0392.0218-.0595.0332-.2184.1223-.493.2761-.8003.3393-.2658.0547-.54.0547-.8058 0-.3073-.0632-.5819-.217-.8003-.3393-.0203-.0114-.0401-.0225-.0595-.0332l-7.39997-4.1112c-.02046-.0113-.04153-.0229-.06313-.0348-.23114-.1273-.52175-.2874-.74493-.5296-.19295-.2094-.33897-.4575-.4283-.7279-.10332-.3127-.10211-.6445-.10115-.9083.00009-.0247.00018-.0488.00018-.0722v-8.11707c0-.0234-.00009-.04747-.00018-.07213-.00096-.26387-.00217-.59565.10115-.90835.08933-.27036.23535-.51852.4283-.7279.22317-.24218.51379-.40225.74492-.52956.0216-.01189.04268-.0235.06314-.03487l7.39997-4.11111c.0194-.01074.0392-.02186.0595-.03325.2184-.12229.493-.27612.8003-.33931z" fill="#801ed7" fill-rule="evenodd"/></svg>

<svg width="24" height="24" viewBox="0 0 24 24" fill="none" xmlns="http://www.w3.org/2000/svg">
<path fill-rule="evenodd" clip-rule="evenodd" d="M11.5971 1.18505C11.8629 1.13038 12.1371 1.13038 12.4029 1.18505C12.7102 1.24824 12.9848 1.40207 13.2032 1.52436C13.2235 1.53575 13.2433 1.54687 13.2627 1.55761L20.6627 5.66872C20.6831 5.68009 20.7042 5.6917 20.7258 5.70359C20.9569 5.8309 21.2476 5.99097 21.4707 6.23315C21.6637 6.44253 21.8097 6.69069 21.899 6.96105C22.0023 7.27375 22.0011 7.60553 22.0002 7.8694C22.0001 7.89406 22 7.91813 22 7.94153V16.0586C22 16.082 22.0001 16.1061 22.0002 16.1308C22.0011 16.3946 22.0023 16.7264 21.899 17.0391C21.8097 17.3095 21.6637 17.5576 21.4707 17.767C21.2476 18.0092 20.9569 18.1693 20.7258 18.2966C20.7042 18.3085 20.6831 18.3201 20.6627 18.3314L13.2627 22.4426C13.2433 22.4533 13.2235 22.4644 13.2032 22.4758C12.9848 22.5981 12.7102 22.7519 12.4029 22.8151C12.1371 22.8698 11.8629 22.8698 11.5971 22.8151C11.2898 22.7519 11.0152 22.5981 10.7968 22.4758C10.7765 22.4644 10.7567 22.4533 10.7373 22.4426L3.33733 18.3314C3.31687 18.3201 3.2958 18.3085 3.2742 18.2966C3.04306 18.1693 2.75245 18.0092 2.52927 17.767C2.33632 17.5576 2.1903 17.3095 2.10097 17.0391C1.99765 16.7264 1.99886 16.3946 1.99982 16.1308C1.99991 16.1061 2 16.082 2 16.0586V7.94153C2 7.91813 1.99991 7.89406 1.99982 7.8694C1.99886 7.60553 1.99765 7.27375 2.10097 6.96105C2.1903 6.69069 2.33632 6.44253 2.52927 6.23315C2.75244 5.99097 3.04306 5.8309 3.27419 5.70359C3.29579 5.6917 3.31687 5.68009 3.33733 5.66872L10.7373 1.55761C10.7567 1.54687 10.7765 1.53575 10.7968 1.52436C11.0152 1.40207 11.2898 1.24824 11.5971 1.18505Z" fill="#801ED7"/>
</svg>
